X:1
T:Little Stream of Whiskey (Dying Hobo)
M:4/4
L:1/4
K:C
 C C E G| c/2c/2 e2 c| c/2 d3/2 c A| c3 c| c3/2 c/2 c A| G E2 C| D D D3/2 E/2|\
 D z2 E| C C E G| c e2 c/2c/2| c/2 d3/2 c A| c2 z2| A/2 d3/2 c A| G E2 C|\
 E G E D| C2 z2|
